X:3734
T:Lo Tricoutado (version Pauvert)
O:england
M:3/8
L:1/8
K:C
egf|e2 e/d/|c/d/e/d/e/f/|d/e/d/e/c|\
egf|e2 e/d/|1 c/d/e/d/e/f/|g3:|2c/d/ed|c2d/e/||
|:cBc|d2  e/d/|c/d/e/d/e/f/|d/e/cd/e/|\
cBc|d2e/d/|c/d/ed|1c2d/e/:|2c3||


